img/icons/media/video.svg

<svg xmlns="http://www.w3.org/2000/svg" viewBox="0 0 48 32"><g data-name="Layer 2"><path d="M31 0H5a5 5 0 00-5 5v22a5 5 0 005 5h26a5 5 0 005-5V5a5 5 0 00-5-5zm3 27a3 3 0 01-3 3H5a3 3 0 01-3-3V5a3 3 0 013-3h26a3 3 0 013 3zm3.76-11L48 30.08V1.93zM46 24l-5.76-8L46 8.07z" fill="#231f20" data-name="Photo / Audio / Video"/></g></svg>

<svg xmlns="http://www.w3.org/2000/svg" viewBox="0 0 48 32"><defs><style>.cls-1{fill:#231f20;}</style></defs><title>Video</title><g id="Layer_2" data-name="Layer 2"><g id="Icons"><g id="Photo_Audio_Video" data-name="Photo / Audio / Video"><g id="Video"><path class="cls-1" d="M31,0H5A5,5,0,0,0,0,5V27a5,5,0,0,0,5,5H31a5,5,0,0,0,5-5V5A5,5,0,0,0,31,0Zm3,27a3,3,0,0,1-3,3H5a3,3,0,0,1-3-3V5A3,3,0,0,1,5,2H31a3,3,0,0,1,3,3Z"/><path class="cls-1" d="M37.76,16,48,30.08V1.93Zm8.24,8L40.24,16,46,8.07Z"/></g></g></g></g></svg>
